X:17
T:Calliope House
M:6/8
L:1/8
R:jig
K:D
|:"D"dAA fAA|"A"eAA "D"fed|"G"Bee e2d|e2d BdB|
"D"A2A A2F|A2B d2e|1 f3 fed|"A"e3 efe:|2 f3 "A"efe|"D"d3 efg|
|:"D"a3 faa|"G"eaa "D"def|"G"g3 "D"fgf|"A"e3 "G"edB|
"D"A2A A2F|A2B d2e|1 f3 fed|"A"e3 efg:|2 f3 "A"fed|"D"e6||
